public/formular-icons/greece/lower-eta.svg

<svg style="vertical-align:-.489ex" xmlns="http://www.w3.org/2000/svg" width="1.124ex" height="1.489ex" viewBox="0 -442 497 658" xmlns:xlink="http://www.w3.org/1999/xlink"><defs><path id="a" d="M21 287q1 3 2 8t5 22 10 31 15 33 20 30 26 22 33 9q24 0 43-7t30-18 16-22 8-19l2-7q0-2 1-2l11 11q61 64 139 64 54 0 87-27t34-79v-10q0-24-64-273-58-235-62-242-13-27-45-27-13 0-22 8t-11 22q0 9 59 243l62 250q3 15 3 38 0 59-44 59h-5q-86 0-145-101l-7-12-33-134Q156 26 151 16q-13-27-43-27-13 0-21 6T76 7t-2 10q0 13 40 172t40 177q0 39-26 39-21 0-36-28t-24-61-11-36q-2-2-16-2H27q-6 6-6 9Z"/></defs><g stroke="currentColor" fill="currentColor" stroke-width="0"><use data-c="1D702" xlink:href="#a" transform="scale(1 -1)"/></g></svg>

<svg style="vertical-align: -0.489ex" xmlns="http://www.w3.org/2000/svg" width="1.124ex" height="1.489ex" role="img" focusable="false" viewBox="0 -442 497 658" xmlns:xlink="http://www.w3.org/1999/xlink"><defs><path id="MJX-97-TEX-I-1D702" d="M21 287Q22 290 23 295T28 317T38 348T53 381T73 411T99 433T132 442Q156 442 175 435T205 417T221 395T229 376L231 369Q231 367 232 367L243 378Q304 442 382 442Q436 442 469 415T503 336V326Q503 302 439 53Q381 -182 377 -189Q364 -216 332 -216Q319 -216 310 -208T299 -186Q299 -177 358 57L420 307Q423 322 423 345Q423 404 379 404H374Q288 404 229 303L222 291L189 157Q156 26 151 16Q138 -11 108 -11Q95 -11 87 -5T76 7T74 17Q74 30 114 189T154 366Q154 405 128 405Q107 405 92 377T68 316T57 280Q55 278 41 278H27Q21 284 21 287Z"></path></defs><g stroke="currentColor" fill="currentColor" stroke-width="0" transform="scale(1,-1)"><g data-mml-node="math"><g data-mml-node="mi"><use data-c="1D702" xlink:href="#MJX-97-TEX-I-1D702"></use></g></g></g></svg>
